X: 27
T: Acemkürdî Aranağme (Aksak)
C: ?
O: Turkey
F: http://compmusic.upf.edu/node/140
N: acemkurdi--aranagme--aksak--1--
N: makam= acemkurdi
N: form= aranagme
N: usul= aksak = 9/8
M: 9/8
L: 1/16
K: C _B   
Q: 1/4=144
%%MIDI tuningsystem comma53
f4 z2ef a2g2 f2e2 d2 | e4z2 def2 e2d2 c2B2  | \
w:  ARANAĞME  |   | 
d4 z2cd _e2d2 c2B2 A2 | 
w:   | 
B4z2 ABd2 c2B2 A2B2  | G12 c4 BA | A16z2  | \
w:   |   |   | 
f4 z2ef a2g2 f2e2 d2 | 
w:  ARANAĞME  | 
e4z2 def2 e2d2 c2B2  | d4 z2cd _e2d2 c2B2 A2 | \
w:   |   | 
B4z2 ABd2 c2B2 A2B2  | 
w:   | 
G12 c4 BA | A16z2  | |


